X: 8866
T: Culliney's Fancy
R: jig
M: 6/8
K: Gmajor
GFG EFG|AFE D2A|BAB GAB|cBA AGF|
GFG EFG|AFE DBc|dgf edB|DEF G3:|
BAB G2A|GFE D2A|BAB GAB|cBA AGA|
BAB G2A|GFE DBc|dgf edB|DEF G3|
BAB G2A|GFE D2A|BAB GAB|cBA ABc|
dgf e2d|eag f2c|dba gdc|BGF G3||

